X:1
T:F  Major            Amos Pilsbury, 1799
T:Anonymous author, not found in other sources    76.76.77.
T:Middlesex
T:Transcribed from  The United States Sacred Harmony, 1799.
%%score [ 1 2 3 4 ]
L:1/8
Q:1/4=80
M:2/4
K:F
V:1 treble nm="Voice" snm="Tr."
V:2 treble nm="Voice" snm="C."
V:3 treble-8 nm="Tenor" snm="T."
V:4 bass nm="Bass" snm="B."
V:1
 c3 d | c3 B | Ad cA | G2 !fermata!G2 | B3 A | d3 d | c2 c2 | [Ac]4 :| z4 | c3 c | AF Bd | cA FA | %12
w: |||||||||Let thy|strength * and *|mer- * cy *|
 A4 | c2 z2 | c3 d | cA Fd | A2 =B2 | c4 | A2 [Ac]2 | Bd fd | c2 c2 | [Ac]4 |] %22
w: be,|be|Mine to|all * e- *|ter- ni-|ty,|Mine to|all * e- *|ter- ni-|ty.|
V:2
"^{" F3 G | A3 F | EF GA | G2 !fermata!G2 | F3 F | FG AF | G2 G2 |"^}" F4 :| z4 | z4 | z4 | c3 B | %12
w: Lord, my|light and|my * sal- *|va- tion,|Speak to|me * a *|gra- cious|word.||||Let thy|
w: Thou a-|lone dost|con- * so- *|la- tion|To a|sink- * ing *|soul af-|ford.|||||
 AF Bc | c2 FG | A4 | AF EF | (A4 | G4) | F2 A2 | FG CE | F2 G2 | F4 |] %22
w: strength * and *|mer- cy *|be|Mine * to *|all~|_|Mine to|all * e- *|ter- ni-|ty.|
w: ||||||||||
V:3
 F3 G | A>G AB | cf ed | c2 !fermata!c2 | (d2 e)f | B3 A | G2 FE | F4 :| z4 | z4 | c3 B | AF Ac | %12
w: ||||||||||Let thy|strength * and *|
 Ac BA | G4 | A3 B | cf ed | c2 d2 | c4 | c2 f2 | dB GA/B/ | A2 G2 | F4 |] %22
w: mer- * cy *|be|Mine to|all * e- *|ter- ni-|ty,|Mine to|all * e- * *|ter- ni-|ty.|
V:4
 F,3 E, | F,C, D,E, | A,2 G,F, | C,2 !fermata!C,2 | F,3 F, | B,,3 D, | C,2 C,2 | F,4 :| C3 B, | %9
w: ||||||||Let thy|
 A,F, A,C | F,3 G, | %11
w: strength * and *|mer- cy|
"^__________________________________________________\nEdited by B. C. Johnston, 2018\n   1. Measure 3, \nBass\n: first note changed from F to A.\n   2. \nCounter\n transposed down an octave, except measures 13 and 14.\n   3. Measure 13, \nTreble\n: grace-note ignored; note changed from G to A.\n   4. Measure 13, Tenor: first note changed from D to A.""^5. Measure 17: second note changed from B\n\n \nto D in \nTenor\n and \nBass\n. \n   6. Measure 21, Counter: second note changed from F to G." C,4- | %12
w: be~|
 C,4- | C,4 | F,3 G, | F,B, A,G, | F,2 D,2 | C,4 | F,2 F,2 | B,G, E,F, | C,2 C,2 | F,4 |] %22
w: _||Mine to|all * e- *|ter- ni-|ty,|Mine to|all * e- *|ter- ni-|ty.|

